dist/images/star-green.svg

<svg baseProfile="basic" xmlns="http://www.w3.org/2000/svg" viewBox="0 0 72 66"><style>.st0{fill:#a1b64b}</style><path class="st0" d="M71.3 25.5h-26l-8.4-24.5-8.3 24.5h-27.9l22 15.1-8.4 24.4 22.7-15.2 21 15.2-8.5-24.4 21.8-15.1zm-18.6 32.9l-15.9-11.7-17.5 11.7 6.5-18.8-16.9-11.5h21.8l6.4-18.8 6.4 18.8h19.8l-16.9 11.5 6.3 18.8zm6.4-29h-16.7l-5.4-16.1-5.6 16.1h-18.5l14.3 9.8-5.5 16.1 15.1-10 13.4 10-5.5-16.1 14.4-9.8z"/></svg>

<svg baseProfile="basic" id="Layer_1" xmlns="http://www.w3.org/2000/svg" viewBox="0 0 72 66"><style>.st0{fill:#a1b64b}</style><path class="st0" d="M71.3 25.5h-26L36.9 1l-8.3 24.5H.7l22 15.1L14.3 65 37 49.8 58 65l-8.5-24.4 21.8-15.1zM52.7 58.4L36.8 46.7 19.3 58.4l6.5-18.8L8.9 28.1h21.8l6.4-18.8 6.4 18.8h19.8L46.4 39.6l6.3 18.8zm6.4-29H42.4L37 13.3l-5.6 16.1H12.9l14.3 9.8-5.5 16.1 15.1-10 13.4 10-5.5-16.1 14.4-9.8z"/></svg>
